svg/white/ltc.svg

<svg height="32" viewBox="0 0 32 32" width="32" xmlns="http://www.w3.org/2000/svg"><path d="m16 32c-8.836556 0-16-7.163444-16-16s7.163444-16 16-16 16 7.163444 16 16-7.163444 16-16 16zm-5.5731415-12.7857143-1.17505994 4.7857143h12.87529974l.8729017-3.5714286h-7.7218225l.8477218-3.4821428 1.4268585-.5714286.6798561-2.75-1.4100719.5714286 1.5191846-6.1964286h-5.1282973l-2.0815348 8.4285714-1.4436451.5803572-.6882494 2.7589285z" fill="#fff" fill-rule="evenodd"/></svg>

<svg xmlns="http://www.w3.org/2000/svg" width="32" height="32" viewBox="0 0 32 32">
  <path fill="#FFF" fill-rule="evenodd" d="M16,32 C7.163444,32 0,24.836556 0,16 C0,7.163444 7.163444,0 16,0 C24.836556,0 32,7.163444 32,16 C32,24.836556 24.836556,32 16,32 Z M10.4268585,19.2142857 L9.25179856,24 L22.1270983,24 L23,20.4285714 L15.2781775,20.4285714 L16.1258993,16.9464286 L17.5527578,16.375 L18.2326139,13.625 L16.822542,14.1964286 L18.3417266,8 L13.2134293,8 L11.1318945,16.4285714 L9.6882494,17.0089286 L9,19.7678571 L10.4268585,19.2142857 Z"/>
</svg>
